imagens/outrosicon-animais.svg

<svg xmlns="http://www.w3.org/2000/svg" xmlns:xlink="http://www.w3.org/1999/xlink" width="1000" zoomAndPan="magnify" viewBox="0 0 750 749.999995" height="1000" preserveAspectRatio="xMidYMid meet" version="1.0"><defs><clipPath id="cf59071836"><path d="M 375 0 C 167.894531 0 0 167.894531 0 375 C 0 582.105469 167.894531 750 375 750 C 582.105469 750 750 582.105469 750 375 C 750 167.894531 582.105469 0 375 0 Z M 375 0 " clip-rule="nonzero"/></clipPath><clipPath id="b8baa17638"><path d="M 166.230469 166.230469 L 583.980469 166.230469 L 583.980469 583.980469 L 166.230469 583.980469 Z M 166.230469 166.230469 " clip-rule="nonzero"/></clipPath></defs><g clip-path="url(#cf59071836)"><rect x="-75" width="900" fill="#ff914d" y="-74.999999" height="899.999994" fill-opacity="1"/></g><g clip-path="url(#b8baa17638)"><path fill="#000000" d="M 375.105469 166.316406 C 259.796875 166.316406 166.316406 259.796875 166.316406 375.105469 C 166.316406 490.417969 259.796875 583.894531 375.105469 583.894531 C 490.417969 583.894531 583.894531 490.417969 583.894531 375.105469 C 583.894531 259.796875 490.417969 166.316406 375.105469 166.316406 Z M 375.105469 559.789062 C 273.109375 559.789062 190.421875 477.105469 190.421875 375.105469 C 190.421875 273.109375 273.109375 190.421875 375.105469 190.421875 C 477.105469 190.421875 559.789062 273.109375 559.789062 375.105469 C 559.789062 477.105469 477.105469 559.789062 375.105469 559.789062 Z M 375.105469 559.789062 " fill-opacity="1" fill-rule="nonzero"/></g><path fill="#000000" d="M 408.292969 375.105469 C 408.292969 376.191406 408.238281 377.277344 408.132812 378.359375 C 408.027344 379.441406 407.867188 380.515625 407.65625 381.582031 C 407.441406 382.648438 407.179688 383.699219 406.863281 384.738281 C 406.546875 385.78125 406.183594 386.800781 405.765625 387.804688 C 405.351562 388.808594 404.886719 389.792969 404.375 390.75 C 403.863281 391.707031 403.304688 392.640625 402.699219 393.542969 C 402.097656 394.449219 401.449219 395.320312 400.757812 396.160156 C 400.070312 397 399.339844 397.804688 398.574219 398.574219 C 397.804688 399.339844 397 400.070312 396.160156 400.757812 C 395.320312 401.449219 394.449219 402.097656 393.542969 402.699219 C 392.640625 403.304688 391.707031 403.863281 390.75 404.375 C 389.792969 404.886719 388.808594 405.351562 387.804688 405.765625 C 386.800781 406.183594 385.78125 406.546875 384.738281 406.863281 C 383.699219 407.179688 382.648438 407.441406 381.582031 407.65625 C 380.515625 407.867188 379.441406 408.027344 378.359375 408.132812 C 377.277344 408.238281 376.191406 408.292969 375.105469 408.292969 C 374.019531 408.292969 372.933594 408.238281 371.851562 408.132812 C 370.773438 408.027344 369.699219 407.867188 368.632812 407.65625 C 367.566406 407.441406 366.511719 407.179688 365.472656 406.863281 C 364.433594 406.546875 363.410156 406.183594 362.40625 405.765625 C 361.402344 405.351562 360.421875 404.886719 359.460938 404.375 C 358.503906 403.863281 357.574219 403.304688 356.667969 402.699219 C 355.765625 402.097656 354.894531 401.449219 354.054688 400.757812 C 353.214844 400.070312 352.410156 399.339844 351.640625 398.574219 C 350.871094 397.804688 350.144531 397 349.453125 396.160156 C 348.761719 395.320312 348.117188 394.449219 347.511719 393.542969 C 346.910156 392.640625 346.351562 391.707031 345.839844 390.75 C 345.328125 389.792969 344.863281 388.808594 344.445312 387.804688 C 344.03125 386.800781 343.664062 385.78125 343.347656 384.738281 C 343.035156 383.699219 342.769531 382.648438 342.558594 381.582031 C 342.347656 380.515625 342.1875 379.441406 342.078125 378.359375 C 341.972656 377.277344 341.921875 376.191406 341.921875 375.105469 C 341.921875 374.019531 341.972656 372.933594 342.078125 371.855469 C 342.1875 370.773438 342.347656 369.699219 342.558594 368.632812 C 342.769531 367.566406 343.035156 366.511719 343.347656 365.472656 C 343.664062 364.433594 344.03125 363.410156 344.445312 362.40625 C 344.863281 361.402344 345.328125 360.421875 345.839844 359.460938 C 346.351562 358.503906 346.910156 357.574219 347.511719 356.667969 C 348.117188 355.765625 348.761719 354.894531 349.453125 354.054688 C 350.140625 353.214844 350.871094 352.410156 351.640625 351.640625 C 352.410156 350.871094 353.214844 350.144531 354.054688 349.453125 C 354.894531 348.761719 355.765625 348.117188 356.667969 347.511719 C 357.574219 346.910156 358.503906 346.351562 359.460938 345.839844 C 360.421875 345.328125 361.402344 344.863281 362.40625 344.445312 C 363.410156 344.03125 364.433594 343.664062 365.472656 343.347656 C 366.511719 343.035156 367.566406 342.769531 368.632812 342.558594 C 369.699219 342.347656 370.773438 342.1875 371.851562 342.078125 C 372.933594 341.972656 374.019531 341.921875 375.105469 341.921875 C 376.191406 341.921875 377.277344 341.972656 378.359375 342.078125 C 379.441406 342.1875 380.515625 342.347656 381.582031 342.558594 C 382.648438 342.769531 383.699219 343.035156 384.738281 343.347656 C 385.78125 343.664062 386.800781 344.03125 387.804688 344.445312 C 388.808594 344.863281 389.792969 345.328125 390.75 345.839844 C 391.707031 346.351562 392.640625 346.910156 393.542969 347.511719 C 394.449219 348.117188 395.320312 348.761719 396.160156 349.453125 C 397 350.140625 397.804688 350.871094 398.574219 351.640625 C 399.339844 352.410156 400.070312 353.214844 400.757812 354.054688 C 401.449219 354.894531 402.097656 355.765625 402.699219 356.667969 C 403.304688 357.574219 403.863281 358.503906 404.375 359.460938 C 404.886719 360.421875 405.351562 361.402344 405.765625 362.40625 C 406.183594 363.410156 406.546875 364.433594 406.863281 365.472656 C 407.179688 366.511719 407.441406 367.566406 407.65625 368.632812 C 407.867188 369.699219 408.027344 370.773438 408.132812 371.855469 C 408.238281 372.933594 408.292969 374.019531 408.292969 375.105469 Z M 408.292969 375.105469 " fill-opacity="1" fill-rule="nonzero"/><path fill="#000000" d="M 295.5 375.105469 C 295.5 376.191406 295.445312 377.277344 295.339844 378.359375 C 295.234375 379.441406 295.074219 380.515625 294.863281 381.582031 C 294.648438 382.648438 294.386719 383.699219 294.070312 384.738281 C 293.753906 385.78125 293.390625 386.800781 292.972656 387.804688 C 292.558594 388.808594 292.09375 389.792969 291.582031 390.75 C 291.070312 391.707031 290.511719 392.640625 289.90625 393.542969 C 289.304688 394.449219 288.65625 395.320312 287.96875 396.160156 C 287.277344 397 286.546875 397.804688 285.78125 398.574219 C 285.011719 399.339844 284.207031 400.070312 283.367188 400.757812 C 282.527344 401.449219 281.65625 402.097656 280.75 402.699219 C 279.847656 403.304688 278.917969 403.863281 277.957031 404.375 C 277 404.886719 276.019531 405.351562 275.011719 405.765625 C 274.007812 406.183594 272.988281 406.546875 271.945312 406.863281 C 270.90625 407.179688 269.855469 407.441406 268.789062 407.65625 C 267.722656 407.867188 266.648438 408.027344 265.566406 408.132812 C 264.484375 408.238281 263.402344 408.292969 262.3125 408.292969 C 261.226562 408.292969 260.144531 408.238281 259.0625 408.132812 C 257.980469 408.027344 256.90625 407.867188 255.839844 407.65625 C 254.773438 407.441406 253.71875 407.179688 252.679688 406.863281 C 251.640625 406.546875 250.617188 406.183594 249.613281 405.765625 C 248.609375 405.351562 247.628906 404.886719 246.671875 404.375 C 245.710938 403.863281 244.78125 403.304688 243.875 402.699219 C 242.972656 402.097656 242.101562 401.449219 241.261719 400.757812 C 240.421875 400.070312 239.617188 399.339844 238.847656 398.574219 C 238.078125 397.804688 237.351562 397 236.660156 396.160156 C 235.972656 395.320312 235.324219 394.449219 234.71875 393.542969 C 234.117188 392.640625 233.558594 391.707031 233.046875 390.75 C 232.535156 389.792969 232.070312 388.808594 231.652344 387.804688 C 231.238281 386.800781 230.871094 385.78125 230.554688 384.738281 C 230.242188 383.699219 229.976562 382.648438 229.765625 381.582031 C 229.554688 380.515625 229.394531 379.441406 229.289062 378.359375 C 229.179688 377.277344 229.128906 376.191406 229.128906 375.105469 C 229.128906 374.019531 229.179688 372.933594 229.289062 371.855469 C 229.394531 370.773438 229.554688 369.699219 229.765625 368.632812 C 229.976562 367.566406 230.242188 366.511719 230.554688 365.472656 C 230.871094 364.433594 231.238281 363.410156 231.652344 362.40625 C 232.070312 361.402344 232.535156 360.421875 233.046875 359.460938 C 233.558594 358.503906 234.117188 357.574219 234.71875 356.667969 C 235.324219 355.765625 235.972656 354.894531 236.660156 354.054688 C 237.351562 353.214844 238.078125 352.410156 238.847656 351.640625 C 239.617188 350.871094 240.421875 350.144531 241.261719 349.453125 C 242.101562 348.761719 242.972656 348.117188 243.875 347.511719 C 244.78125 346.910156 245.710938 346.351562 246.671875 345.839844 C 247.628906 345.328125 248.609375 344.863281 249.613281 344.445312 C 250.617188 344.03125 251.640625 343.664062 252.679688 343.347656 C 253.71875 343.035156 254.773438 342.769531 255.839844 342.558594 C 256.90625 342.347656 257.980469 342.1875 259.0625 342.078125 C 260.144531 341.972656 261.226562 341.921875 262.3125 341.921875 C 263.402344 341.921875 264.484375 341.972656 265.566406 342.078125 C 266.648438 342.1875 267.722656 342.347656 268.789062 342.558594 C 269.855469 342.769531 270.90625 343.035156 271.945312 343.347656 C 272.988281 343.664062 274.007812 344.03125 275.011719 344.445312 C 276.019531 344.863281 277 345.328125 277.957031 345.839844 C 278.917969 346.351562 279.847656 346.910156 280.75 347.511719 C 281.65625 348.117188 282.527344 348.761719 283.367188 349.453125 C 284.207031 350.140625 285.011719 350.871094 285.78125 351.640625 C 286.546875 352.410156 287.277344 353.214844 287.96875 354.054688 C 288.65625 354.894531 289.304688 355.765625 289.90625 356.667969 C 290.511719 357.574219 291.070312 358.503906 291.582031 359.460938 C 292.09375 360.421875 292.558594 361.402344 292.972656 362.40625 C 293.390625 363.410156 293.753906 364.433594 294.070312 365.472656 C 294.386719 366.511719 294.648438 367.566406 294.863281 368.632812 C 295.074219 369.699219 295.234375 370.773438 295.339844 371.855469 C 295.445312 372.933594 295.5 374.019531 295.5 375.105469 Z M 295.5 375.105469 " fill-opacity="1" fill-rule="nonzero"/><path fill="#000000" d="M 521.085938 375.105469 C 521.085938 376.191406 521.03125 377.277344 520.925781 378.359375 C 520.820312 379.441406 520.660156 380.515625 520.449219 381.582031 C 520.234375 382.648438 519.972656 383.699219 519.65625 384.738281 C 519.339844 385.78125 518.976562 386.800781 518.558594 387.804688 C 518.144531 388.808594 517.679688 389.792969 517.167969 390.75 C 516.652344 391.707031 516.097656 392.640625 515.492188 393.542969 C 514.886719 394.449219 514.242188 395.320312 513.550781 396.160156 C 512.863281 397 512.132812 397.804688 511.363281 398.574219 C 510.597656 399.339844 509.792969 400.070312 508.953125 400.757812 C 508.113281 401.449219 507.238281 402.097656 506.335938 402.699219 C 505.433594 403.304688 504.5 403.863281 503.542969 404.375 C 502.585938 404.886719 501.601562 405.351562 500.597656 405.765625 C 499.59375 406.183594 498.574219 406.546875 497.53125 406.863281 C 496.492188 407.179688 495.4375 407.441406 494.375 407.65625 C 493.308594 407.867188 492.234375 408.027344 491.152344 408.132812 C 490.070312 408.238281 488.984375 408.292969 487.898438 408.292969 C 486.8125 408.292969 485.726562 408.238281 484.644531 408.132812 C 483.5625 408.027344 482.492188 407.867188 481.425781 407.65625 C 480.359375 407.441406 479.304688 407.179688 478.265625 406.863281 C 477.226562 406.546875 476.203125 406.183594 475.199219 405.765625 C 474.195312 405.351562 473.214844 404.886719 472.253906 404.375 C 471.296875 403.863281 470.363281 403.304688 469.460938 402.699219 C 468.558594 402.097656 467.6875 401.449219 466.84375 400.757812 C 466.003906 400.070312 465.199219 399.339844 464.433594 398.574219 C 463.664062 397.804688 462.933594 397 462.246094 396.160156 C 461.554688 395.320312 460.910156 394.449219 460.304688 393.542969 C 459.703125 392.640625 459.144531 391.707031 458.632812 390.75 C 458.117188 389.792969 457.65625 388.808594 457.238281 387.804688 C 456.824219 386.800781 456.457031 385.78125 456.140625 384.738281 C 455.824219 383.699219 455.5625 382.648438 455.351562 381.582031 C 455.136719 380.515625 454.980469 379.441406 454.871094 378.359375 C 454.765625 377.277344 454.710938 376.191406 454.710938 375.105469 C 454.710938 374.019531 454.765625 372.933594 454.871094 371.855469 C 454.980469 370.773438 455.136719 369.699219 455.351562 368.632812 C 455.5625 367.566406 455.824219 366.511719 456.140625 365.472656 C 456.457031 364.433594 456.824219 363.410156 457.238281 362.40625 C 457.65625 361.402344 458.117188 360.421875 458.632812 359.460938 C 459.144531 358.503906 459.703125 357.574219 460.304688 356.667969 C 460.910156 355.765625 461.554688 354.894531 462.246094 354.054688 C 462.933594 353.214844 463.664062 352.410156 464.433594 351.640625 C 465.199219 350.871094 466.003906 350.144531 466.84375 349.453125 C 467.6875 348.761719 468.558594 348.117188 469.460938 347.511719 C 470.367188 346.910156 471.296875 346.351562 472.253906 345.839844 C 473.214844 345.328125 474.195312 344.863281 475.199219 344.445312 C 476.203125 344.03125 477.226562 343.664062 478.265625 343.347656 C 479.304688 343.035156 480.359375 342.769531 481.425781 342.558594 C 482.492188 342.347656 483.5625 342.1875 484.644531 342.078125 C 485.726562 341.972656 486.8125 341.921875 487.898438 341.921875 C 488.984375 341.921875 490.070312 341.972656 491.152344 342.078125 C 492.234375 342.1875 493.308594 342.347656 494.375 342.558594 C 495.4375 342.769531 496.492188 343.035156 497.53125 343.347656 C 498.574219 343.664062 499.59375 344.03125 500.597656 344.445312 C 501.601562 344.863281 502.585938 345.328125 503.542969 345.839844 C 504.5 346.351562 505.433594 346.910156 506.335938 347.511719 C 507.238281 348.117188 508.113281 348.761719 508.953125 349.453125 C 509.792969 350.140625 510.597656 350.871094 511.363281 351.640625 C 512.132812 352.410156 512.863281 353.214844 513.550781 354.054688 C 514.242188 354.894531 514.886719 355.765625 515.492188 356.667969 C 516.097656 357.574219 516.652344 358.503906 517.167969 359.460938 C 517.679688 360.421875 518.144531 361.402344 518.558594 362.40625 C 518.976562 363.410156 519.339844 364.433594 519.65625 365.472656 C 519.972656 366.511719 520.234375 367.566406 520.449219 368.632812 C 520.660156 369.699219 520.820312 370.773438 520.925781 371.855469 C 521.03125 372.933594 521.085938 374.019531 521.085938 375.105469 Z M 521.085938 375.105469 " fill-opacity="1" fill-rule="nonzero"/></svg>

<svg xmlns="http://www.w3.org/2000/svg" width="1000" height="1000" version="1.0" viewBox="0 0 750 750"><defs><clipPath id="a"><path d="M375 0C167.895 0 0 167.895 0 375s167.895 375 375 375 375-167.895 375-375S582.105 0 375 0Zm0 0"/></clipPath><clipPath id="b"><path d="M166.23 166.23h417.75v417.75H166.23Zm0 0"/></clipPath></defs><g clip-path="url(#a)"><path fill="#ff914d" d="M-75-75h900v900H-75z"/></g><g clip-path="url(#b)"><path d="M375.105 166.316c-115.308 0-208.789 93.48-208.789 208.79 0 115.312 93.48 208.789 208.79 208.789 115.312 0 208.789-93.477 208.789-208.79 0-115.308-93.477-208.789-208.79-208.789Zm0 393.473c-101.996 0-184.683-82.684-184.683-184.684 0-101.996 82.687-184.683 184.683-184.683 102 0 184.684 82.687 184.684 184.683 0 102-82.684 184.684-184.684 184.684Zm0 0"/></g><path d="M408.293 375.105a33.543 33.543 0 0 1-.637 6.477 33.588 33.588 0 0 1-1.89 6.223 32.666 32.666 0 0 1-3.067 5.738 33.623 33.623 0 0 1-4.125 5.031 33.623 33.623 0 0 1-5.031 4.125 32.605 32.605 0 0 1-5.738 3.067 33.588 33.588 0 0 1-6.223 1.89 33.199 33.199 0 0 1-6.477.637 33.543 33.543 0 0 1-6.472-.637 33.667 33.667 0 0 1-3.16-.793 32.922 32.922 0 0 1-3.067-1.097 33.176 33.176 0 0 1-2.945-1.391 33.22 33.22 0 0 1-10.008-8.215 32.618 32.618 0 0 1-1.941-2.617 33.6 33.6 0 0 1-3.067-5.738 33.66 33.66 0 0 1-1.097-3.067 33.57 33.57 0 0 1-1.27-6.379 33.539 33.539 0 0 1-.156-3.254c0-1.085.05-2.171.156-3.25a33.648 33.648 0 0 1 1.27-6.383c.316-1.038.683-2.062 1.097-3.066a34.347 34.347 0 0 1 1.395-2.945 34.253 34.253 0 0 1 1.672-2.793 33.268 33.268 0 0 1 4.129-5.027 33.677 33.677 0 0 1 5.027-4.13 34.253 34.253 0 0 1 2.793-1.671c.96-.512 1.941-.977 2.945-1.395a34.087 34.087 0 0 1 3.067-1.097 33.648 33.648 0 0 1 6.379-1.27 33.539 33.539 0 0 1 3.253-.156c1.086 0 2.172.05 3.254.156a33.57 33.57 0 0 1 6.379 1.27 33.66 33.66 0 0 1 3.067 1.097 33.6 33.6 0 0 1 5.738 3.066c.906.606 1.777 1.25 2.617 1.942a32.776 32.776 0 0 1 4.598 4.602 33.22 33.22 0 0 1 3.617 5.406c.512.96.977 1.941 1.39 2.945a32.922 32.922 0 0 1 1.098 3.067c.317 1.039.578 2.093.793 3.16a33.199 33.199 0 0 1 .637 6.472ZM295.5 375.105a33.544 33.544 0 0 1-.637 6.477 33.588 33.588 0 0 1-1.89 6.223 32.666 32.666 0 0 1-3.067 5.738 32.572 32.572 0 0 1-1.937 2.617 34.63 34.63 0 0 1-2.188 2.414 33.623 33.623 0 0 1-5.031 4.125 32.013 32.013 0 0 1-2.793 1.676c-.957.512-1.937.977-2.945 1.39a33.588 33.588 0 0 1-6.223 1.89 33.199 33.199 0 0 1-9.726.478 33.199 33.199 0 0 1-3.223-.477 33.667 33.667 0 0 1-3.16-.793 32.922 32.922 0 0 1-3.067-1.097 32.595 32.595 0 0 1-2.941-1.391 32.672 32.672 0 0 1-5.41-3.617 33.623 33.623 0 0 1-2.414-2.184 33.677 33.677 0 0 1-2.188-2.414 33.587 33.587 0 0 1-1.941-2.617 33.601 33.601 0 0 1-3.067-5.738 33.66 33.66 0 0 1-1.097-3.067 33.2 33.2 0 0 1-1.426-9.633 33.2 33.2 0 0 1 2.523-12.7 34.347 34.347 0 0 1 1.395-2.944 34.254 34.254 0 0 1 1.672-2.793 33.677 33.677 0 0 1 4.129-5.027 33.677 33.677 0 0 1 5.027-4.13 33.67 33.67 0 0 1 5.738-3.066 34.087 34.087 0 0 1 3.067-1.097 33.648 33.648 0 0 1 6.382-1.27 33.459 33.459 0 0 1 3.25-.156c1.09 0 2.172.05 3.254.156a33.57 33.57 0 0 1 6.379 1.27 33.27 33.27 0 0 1 8.805 4.164c.906.605 1.777 1.25 2.617 1.941.84.688 1.645 1.418 2.414 2.188a33.22 33.22 0 0 1 9.082 16.992 33.199 33.199 0 0 1 .637 6.472ZM521.086 375.105a33.543 33.543 0 0 1-.637 6.477 33.589 33.589 0 0 1-1.89 6.223 32.666 32.666 0 0 1-3.067 5.738 32.618 32.618 0 0 1-1.941 2.617 32.776 32.776 0 0 1-2.188 2.414 32.747 32.747 0 0 1-2.41 2.184c-.84.691-1.715 1.34-2.617 1.941a32.605 32.605 0 0 1-5.738 3.067 32.524 32.524 0 0 1-3.067 1.097c-1.039.317-2.094.578-3.156.793a33.199 33.199 0 0 1-6.477.637 33.543 33.543 0 0 1-6.472-.637 33.667 33.667 0 0 1-3.16-.793 32.921 32.921 0 0 1-3.067-1.097 32.605 32.605 0 0 1-5.738-3.066 33.08 33.08 0 0 1-5.027-4.126c-.77-.77-1.5-1.574-2.188-2.414a32.618 32.618 0 0 1-1.941-2.617 33.601 33.601 0 0 1-3.067-5.738 33.66 33.66 0 0 1-1.097-3.067 32.404 32.404 0 0 1-.79-3.156 33.21 33.21 0 0 1-.64-6.477 33.211 33.211 0 0 1 .64-6.473 32.48 32.48 0 0 1 .79-3.16 33.212 33.212 0 0 1 2.492-6.012 34.253 34.253 0 0 1 1.672-2.792 33.267 33.267 0 0 1 4.129-5.027 32.8 32.8 0 0 1 5.027-4.13 34.253 34.253 0 0 1 2.793-1.671c.96-.512 1.941-.977 2.945-1.395a34.087 34.087 0 0 1 3.067-1.097 33.648 33.648 0 0 1 6.379-1.27 33.539 33.539 0 0 1 3.253-.156c1.086 0 2.172.05 3.254.156 1.082.11 2.157.27 3.223.48 1.063.212 2.117.477 3.156.79a33.66 33.66 0 0 1 3.067 1.097 33.6 33.6 0 0 1 5.738 3.066c.902.606 1.777 1.25 2.617 1.942.84.688 1.645 1.418 2.41 2.188a33.267 33.267 0 0 1 4.129 5.027c.606.906 1.16 1.836 1.676 2.793.512.96.977 1.941 1.39 2.945a32.922 32.922 0 0 1 1.098 3.067c.317 1.039.578 2.093.793 3.16a33.2 33.2 0 0 1 .637 6.472Zm0 0"/></svg>
